X: 841
T: Rose Division
B: jims roots
M:C|
L:1/8
Q: 1/4=100
K:C
V:1 
%D:Rounder 0024, Hollow Rock String Band (1974)
cd|:"C"e2G2e2ed|c2ae ga g2|"G"GABc dedB|"C"c2ae ga g2|
C2c2e3d|c2ae ga g2|"G"GABc dedB|[1 "C"c[e2c][ec] [e2c]cd:|[2 "C"c[e2c][ec] [e2c]g2||
"F"a2b2"4"c'2c'g|a2g/a/g "C"edcA|"G"GABc dedB|"C"cdcA G2 g2|
"F"a2b2"4"c'2c'g|a2g/a/g "C"edcA|"G"GABc dedB|[1 "C"c[e2c][ec] [e2c]g2:|[2 "C"G6 |]
% abcbook-tune_id 6298c287ca46a4ed5e426f30


% abcbook-boost 0
% abcbook-tablature 
% abcbook-transpose 
% abcbook-lastupdated 1654178439804
% abcbook-soundfonts 
% abcbook-repeats 1


